X: 90
T: Hunting The Buffalo
B: canberra pickers and fiddlers
B: old time tunes update
B: tunes
M:4/4
L:1/8
R: reel
Q: 1/4=100
K:A
V:1 
"A"{B}c4 cBAB|cBAG F2E2|{B}c4 cBAB|cBce "D"f2e2|
"A"{B}c4 cBAB|cBAG F2E2|{B}c4 cB A2|"F#m"F3 E F2:|
|:"D"{E}F3 E F2E2|FEFG A2E2|FEFG A2 AB|"A"{B}c2{B}c2(3BcBA2|
"D"{E}F3 E F2E2|FEFG A2 AB|"A"{B}c2{B}c2 (3BcBA2|"F#m"F3 E F2:|
% abcbook-tune_id 67a7d9ece1c07d65b7a36d81
% abcbook-tune_composer_id 
% abcbook-link-0 https://www.youtube.com/watch?v=xLOI8_x6oNY
% abcbook-link-title-0 Hunting the Buffalo - Big Chimney Barn Dance
% abcbook-boost 0
% abcbook-difficulty 0
% abcbook-tags old time tunes
% abcbook-tablature 
% abcbook-transpose 
% abcbook-tuning AEAC#
% abcbook-lastupdated 1739166630194
% abcbook-src-url 
% abcbook-soundfonts 
% abcbook-repeats 1


